Origami/48x48/apps/xiphos.svg

<svg width="48" height="48" version="1.1" viewBox="0 0 48 48" xmlns="http://www.w3.org/2000/svg">
 <path d="m10.181818 5.0000002c-1.2087278 0-2.1818188 0.9557143-2.1818188 2.1428571v35.714286c0 1.187142 0.973091 2.142857 2.1818188 2.142857h27.636365c1.208727 0 2.181818-0.955715 2.181818-2.142857v-35.714286c0-1.1871428-0.973091-2.1428571-2.181818-2.1428571z" style="opacity:.2"/>
 <path d="m10.181818 4.0000002c-1.2087278 0-2.1818188 0.9557143-2.1818188 2.1428571v35.714286c0 1.187142 0.973091 2.142857 2.1818188 2.142857h27.636365c1.208727 0 2.181818-0.955715 2.181818-2.142857v-35.714286c0-1.1871428-0.973091-2.1428571-2.181818-2.1428571z" style="fill:#961a1a"/>
 <path d="m24 11v7h-7v6h7v15h6v-15h7v-6h-7v-7h-6z" style="opacity:.2"/>
 <path d="m10.181818 4.0000002c-1.2087278 0-2.1818188 0.9557143-2.1818188 2.1428571v35.714286c0 1.187142 0.973091 2.142857 2.1818188 2.142857h3.818182v-40z" style="opacity:.2"/>
 <rect x="24" y="10" width="6" height="28" style="fill:#ffffff"/>
 <rect transform="rotate(90)" x="17" y="-37" width="6" height="20" style="fill:#ffffff"/>
 <path d="M 10.181641 4 C 8.9729128 4 8 4.9554353 8 6.1425781 L 8 7.1425781 C 8 5.9554353 8.9729128 5 10.181641 5 L 37.818359 5 C 39.027086 5 40 5.9554353 40 7.1425781 L 40 6.1425781 C 40 4.9554353 39.027086 4 37.818359 4 L 10.181641 4 z" style="fill:#ffffff;opacity:.1"/>
</svg>

<svg xmlns="http://www.w3.org/2000/svg" width="48" height="48" version="1.1" viewBox="0 0 48 48">
 <path style="opacity:0.2" d="m 10.181818,5.0000002 c -1.2087278,0 -2.1818188,0.9557143 -2.1818188,2.1428571 V 42.857143 C 7.9999992,44.044285 8.9730902,45 10.181818,45 h 27.636365 c 1.208727,0 2.181818,-0.955715 2.181818,-2.142857 V 7.1428573 c 0,-1.1871428 -0.973091,-2.1428571 -2.181818,-2.1428571 z"/>
 <path style="fill:#961a1a" d="m 10.181818,4.0000002 c -1.2087278,0 -2.1818188,0.9557143 -2.1818188,2.1428571 V 41.857143 C 7.9999992,43.044285 8.9730902,44 10.181818,44 h 27.636365 c 1.208727,0 2.181818,-0.955715 2.181818,-2.142857 V 6.1428573 c 0,-1.1871428 -0.973091,-2.1428571 -2.181818,-2.1428571 z"/>
 <path style="opacity:0.2" d="M 24 11 L 24 18 L 17 18 L 17 24 L 24 24 L 24 39 L 30 39 L 30 24 L 37 24 L 37 18 L 30 18 L 30 11 L 24 11 z"/>
 <path style="opacity:0.2" d="m 10.181818,4.0000002 c -1.2087278,0 -2.1818188,0.9557143 -2.1818188,2.1428571 V 41.857143 C 7.9999992,43.044285 8.9730902,44 10.181818,44 H 14 V 4.0000002 Z"/>
 <rect style="fill:#ffffff" width="6" height="28" x="24" y="10"/>
 <rect style="fill:#ffffff" width="6" height="20" x="17" y="-37" transform="rotate(90)"/>
 <path style="fill:#ffffff;opacity:0.1" d="M 10.181641 4 C 8.9729128 4 8 4.9554353 8 6.1425781 L 8 7.1425781 C 8 5.9554353 8.9729128 5 10.181641 5 L 37.818359 5 C 39.027086 5 40 5.9554353 40 7.1425781 L 40 6.1425781 C 40 4.9554353 39.027086 4 37.818359 4 L 10.181641 4 z"/>
</svg>
